!!! OTL: Literature147
!!! Chapter: 5
!!! Section: IV
!!! Page: 380
!!! Mode: 
!!! Encoder: DJB
**kern
*staff1
*I"Piano
=1-
*clefG2
*k[f#c#g#]
*f#:
*M4/4
8c#/L
8a/
8g#/
8a/J
2e#/
=2
8f#/L
8cc#/
8b/
8cc#/J
2g#/
=3
8a/L
8b/J
4f#/
8g#/L
8a/J
4e#/
=4
4f#/
8e/L
8d/J
2c#/
=5
8c#/L
8a/
8g#/
8a/J
2e#/
=6
8f#/L
8cc#/
8b/
8cc#/J
8ff#\L
16ee\L
16dd\JJ
8cc#\L
16b\L
16a\JJ
=7
!!linebreak:original
8ee\L
16dd\L
16ccn\JJ
8b/L
16a/L
16gn/JJ
8cc\L
16b\L
16a\JJ
12a/L
12g#/
12f#/J
=8
*M2/4
12f#/L
12e/
12e#/J
4e#/
=9
*M4/4
8c#/L
8a/
8g#/
8a/J
2f#/
==
*-
